data/madimi-one.svg

<svg width="73.654" height="18.48" viewBox="0 0 73.654 18.48" xmlns="http://www.w3.org/2000/svg"><path transform="translate(0 14.14) scale(.014 -.014)" d="m211 59q0-67-70-67-34 0-54 17t-20 50v413q0 118 50.5 178.5t149.5 60.5q73 0 121-30t64-86q16 56 64 86t123 30q102 0 151-58.5t49-180.5v-403q0-41-16-59t-54-18-56 18.5-18 58.5v411q0 99-85 99-43 0-64-28.5t-21-90.5v-381q0-41-16-59t-54-18-56 18.5-18 58.5v381q0 119-85 119t-85-99z"/><path transform="translate(12.684 14.14) scale(.014 -.014)" d="m240-8q-100 0-156 46.5t-56 120.5q0 87 73.5 126t215.5 27q-7 46-29 62.5t-53 16.5q-25 0-41.5-2.5t-30.5-5.5-34-3q-27 0-43 9.5t-16 38.5q0 41 35.5 60.5t112.5 19.5q122 0 181-69.5t59-185.5q0-134-48.5-197.5t-169.5-63.5zm-68 167q0-57 77-57 25 0 39 9t20.5 36 9.5 81q-5-5-13-7t-16-2q-66 0-91.5-12.5t-25.5-47.5z"/><path transform="translate(19.586 14.14) scale(.014 -.014)" d="m272-8q-110 0-173.5 70t-63.5 205q0 90 26 143t72.5 75.5 105.5 22.5q53 0 86-13t52-44q-7 21-10.5 39.5t-5 43.5-1.5 64v86q0 78 67 78 73 0 73-78v-423q0-135-60-202t-168-67zm-7 120q42 0 65.5 30t23.5 112q0 55-10.5 83.5t-30.5 39.5-48 11-48-11-30.5-39.5-10.5-83.5q0-82 23.5-112t65.5-30z"/><path transform="translate(27.426 14.14) scale(.014 -.014)" d="m135 594q-37 0-62 24t-25 59q0 37 25 61t62 24q38 0 62.5-24t24.5-61q0-35-24.5-59t-62.5-24zm72-535q0-67-70-67-34 0-54 16.5t-20 50.5v381q0 32 16.5 50t55.5 18 55.5-18 16.5-50z"/><path transform="translate(31.206 14.14) scale(.014 -.014)" d="m133-8q-72 0-72 68v240q0 102 48.5 155t139.5 53q124 0 168-89 44 89 168 89 91 0 139.5-53t48.5-155v-240q0-68-72-68t-72 68v232q0 51-17 73.5t-53 22.5q-72 0-72-96v-228q0-68-70-68t-70 68v228q0 96-72 96-70 0-70-96v-232q0-68-72-68z"/><path transform="translate(42.882 14.14) scale(.014 -.014)" d="m135 594q-37 0-62 24t-25 59q0 37 25 61t62 24q38 0 62.5-24t24.5-61q0-35-24.5-59t-62.5-24zm72-535q0-67-70-67-34 0-54 16.5t-20 50.5v381q0 32 16.5 50t55.5 18 55.5-18 16.5-50z"/><path transform="translate(49.714 14.14) scale(.014 -.014)" d="m320-8q-87 0-148 34.5t-92.5 113.5-31.5 214 31.5 213 92.5 111 148 33q88 0 148.5-33t92-111 31.5-213-31.5-214-92-113.5-148.5-34.5zm0 132q40 0 68.5 19t44 69 15.5 142q0 93-15.5 141.5t-44 66-68.5 17.5q-39 0-68-17.5t-44.5-66-15.5-141.5q0-92 15.5-142t44.5-69 68-19z"/><path transform="translate(58.674 14.14) scale(.014 -.014)" d="m133-8q-72 0-72 68v240q0 96 61.5 152t162.5 56 162.5-56 61.5-152v-240q0-68-72-68t-72 68v232q0 47-21 71.5t-59 24.5-59-24.5-21-71.5v-232q0-68-72-68z"/><path transform="translate(66.654 14.14) scale(.014 -.014)" d="m295-8q-100 0-156.5 33t-80 91-23.5 133q0 138 61 198.5t164 60.5q62 0 110-21t75-59.5 27-93.5q0-160-228-160h-58q8-31 26.5-48.5t65.5-17.5q26 0 42 3t30.5 6 33.5 3q27 0 43-9.5t16-38.5q0-41-35.5-60.5t-112.5-19.5zm-116 256q8 11 18 14.5t31 3.5q59 0 81.5 11.5t22.5 41.5q0 38-21 58.5t-53 20.5q-37 0-58-31t-21-119z"/></svg>

<?xml version="1.0" encoding="utf-8" ?>
<svg baseProfile="tiny" height="100%" version="1.2" width="100%" xmlns="http://www.w3.org/2000/svg" xmlns:ev="http://www.w3.org/2001/xml-events" xmlns:xlink="http://www.w3.org/1999/xlink"><defs /><g><path d="M211 59Q211 -8 141 -8Q107 -8 87.0 9.0Q67 26 67 59V472Q67 590 117.5 650.5Q168 711 267 711Q340 711 388.0 681.0Q436 651 452 595Q468 651 516.0 681.0Q564 711 639 711Q741 711 790.0 652.5Q839 594 839 472V69Q839 28 823.0 10.0Q807 -8 769 -8Q731 -8 713.0 10.5Q695 29 695 69V480Q695 579 610 579Q567 579 546.0 550.5Q525 522 525 460V79Q525 38 509.0 20.0Q493 2 455 2Q417 2 399.0 20.5Q381 39 381 79V460Q381 579 296 579Q211 579 211 480Z" transform="translate(0.0, 72) scale(0.072, -0.072)" /><path d="M240 -8Q140 -8 84.0 38.5Q28 85 28 159Q28 246 101.5 285.0Q175 324 317 312Q310 358 288.0 374.5Q266 391 235 391Q210 391 193.5 388.5Q177 386 163.0 383.0Q149 380 129 380Q102 380 86.0 389.5Q70 399 70 428Q70 469 105.5 488.5Q141 508 218 508Q340 508 399.0 438.5Q458 369 458 253Q458 119 409.5 55.5Q361 -8 240 -8ZM172 159Q172 102 249 102Q274 102 288.0 111.0Q302 120 308.5 147.0Q315 174 318 228Q313 223 305.0 221.0Q297 219 289 219Q223 219 197.5 206.5Q172 194 172 159Z" transform="translate(65.232, 72) scale(0.072, -0.072)" /><path d="M272 -8Q162 -8 98.5 62.0Q35 132 35 267Q35 357 61.0 410.0Q87 463 133.5 485.5Q180 508 239 508Q292 508 325.0 495.0Q358 482 377 451Q370 472 366.5 490.5Q363 509 361.5 534.0Q360 559 360 598V684Q360 762 427 762Q500 762 500 684V261Q500 126 440.0 59.0Q380 -8 272 -8ZM265 112Q307 112 330.5 142.0Q354 172 354 254Q354 309 343.5 337.5Q333 366 313.0 377.0Q293 388 265 388Q237 388 217.0 377.0Q197 366 186.5 337.5Q176 309 176 254Q176 172 199.5 142.0Q223 112 265 112Z" transform="translate(100.728, 72) scale(0.072, -0.072)" /><path d="M135 594Q98 594 73.0 618.0Q48 642 48 677Q48 714 73.0 738.0Q98 762 135 762Q173 762 197.5 738.0Q222 714 222 677Q222 642 197.5 618.0Q173 594 135 594ZM207 59Q207 -8 137 -8Q103 -8 83.0 8.5Q63 25 63 59V440Q63 472 79.5 490.0Q96 508 135 508Q174 508 190.5 490.0Q207 472 207 440Z" transform="translate(141.048, 72) scale(0.072, -0.072)" /><path d="M133 -8Q61 -8 61 60V300Q61 402 109.5 455.0Q158 508 249 508Q373 508 417 419Q461 508 585 508Q676 508 724.5 455.0Q773 402 773 300V60Q773 -8 701 -8Q629 -8 629 60V292Q629 343 612.0 365.5Q595 388 559 388Q487 388 487 292V64Q487 -4 417 -4Q347 -4 347 64V292Q347 388 275 388Q205 388 205 292V60Q205 -8 133 -8Z" transform="translate(160.488, 72) scale(0.072, -0.072)" /><path d="M135 594Q98 594 73.0 618.0Q48 642 48 677Q48 714 73.0 738.0Q98 762 135 762Q173 762 197.5 738.0Q222 714 222 677Q222 642 197.5 618.0Q173 594 135 594ZM207 59Q207 -8 137 -8Q103 -8 83.0 8.5Q63 25 63 59V440Q63 472 79.5 490.0Q96 508 135 508Q174 508 190.5 490.0Q207 472 207 440Z" transform="translate(220.536, 72) scale(0.072, -0.072)" /><path d="M320 -8Q233 -8 172.0 26.5Q111 61 79.5 140.0Q48 219 48 354Q48 489 79.5 567.0Q111 645 172.0 678.0Q233 711 320 711Q408 711 468.5 678.0Q529 645 560.5 567.0Q592 489 592 354Q592 219 560.5 140.0Q529 61 468.5 26.5Q408 -8 320 -8ZM320 124Q360 124 388.5 143.0Q417 162 432.5 212.0Q448 262 448 354Q448 447 432.5 495.5Q417 544 388.5 561.5Q360 579 320 579Q281 579 252.0 561.5Q223 544 207.5 495.5Q192 447 192 354Q192 262 207.5 212.0Q223 162 252.0 143.0Q281 124 320 124Z" transform="translate(255.672, 72) scale(0.072, -0.072)" /><path d="M133 -8Q61 -8 61 60V300Q61 396 122.5 452.0Q184 508 285 508Q386 508 447.5 452.0Q509 396 509 300V60Q509 -8 437 -8Q365 -8 365 60V292Q365 339 344.0 363.5Q323 388 285 388Q247 388 226.0 363.5Q205 339 205 292V60Q205 -8 133 -8Z" transform="translate(301.752, 72) scale(0.072, -0.072)" /><path d="M295 -8Q195 -8 138.5 25.0Q82 58 58.5 116.0Q35 174 35 249Q35 387 96.0 447.5Q157 508 260 508Q322 508 370.0 487.0Q418 466 445.0 427.5Q472 389 472 334Q472 174 244 174H186Q194 143 212.5 125.5Q231 108 278 108Q304 108 320.0 111.0Q336 114 350.5 117.0Q365 120 384 120Q411 120 427.0 110.5Q443 101 443 72Q443 31 407.5 11.5Q372 -8 295 -8ZM179 248Q187 259 197.0 262.5Q207 266 228 266Q287 266 309.5 277.5Q332 289 332 319Q332 357 311.0 377.5Q290 398 258 398Q221 398 200.0 367.0Q179 336 179 248Z" transform="translate(342.79200000000003, 72) scale(0.072, -0.072)" /></g></svg>
